remix/Media/camera-2-line.svg

<svg viewBox="0 0 24 24" fill="currentColor" xmlns="http://www.w3.org/2000/svg"><path d="M2 3.9934C2 3.44476 2.45531 3 2.9918 3H21.0082C21.556 3 22 3.44495 22 3.9934V20.0066C22 20.5552 21.5447 21 21.0082 21H2.9918C2.44405 21 2 20.5551 2 20.0066V3.9934ZM4 5V19H20V5H4ZM12 15C13.6569 15 15 13.6569 15 12C15 10.3431 13.6569 9 12 9C10.3431 9 9 10.3431 9 12C9 13.6569 10.3431 15 12 15ZM12 17C9.23858 17 7 14.7614 7 12C7 9.23858 9.23858 7 12 7C14.7614 7 17 9.23858 17 12C17 14.7614 14.7614 17 12 17ZM17 6H19V8H17V6Z"/></svg>

<svg viewBox="0 0 24 24" xmlns="http://www.w3.org/2000/svg"><path fill="none" d="M0 0h24v24H0Z"/><path d="M2 3.99h-.001c0-.55.44-.99.992-1h18.01c.54 0 .99.44.99.99v16.01h0c-.01.54-.45.98-1 .99H2.971v0c-.55-.01-1-.45-1-1V3.96Zm2 1v14h16v-14H4Zm8 10v0c1.65 0 3-1.35 3-3 0-1.66-1.35-3-3-3v0c-1.66 0-3 1.34-3 3 0 1.65 1.34 3 3 3Zm0 2v0c-2.77 0-5-2.24-5-5 0-2.77 2.23-5 5-5v0c2.76 0 5 2.23 5 5 0 2.76-2.24 5-5 5Zm5-11h2v2h-2v-2Z"/></svg>
